!!!OTL: Treue Liebe bis zum Grabe.
!!!OTL-incipit: TREUE LIEBE BIS ZUM GRABE
!!!COM: W. Tschirsch
!!!ARE: Europa, Mitteleuropa, Deutschland
!!!SCT: F0468
!!!TXL: @@DE
!!!YEM: Copyright 1995, estate of Helmut Schaffrath.
**kern	**text
*ICvox	*
*M3/4	*
*k[f#]	*
*G:	*
!LO:TX:a:t=Ziemlich langsam.	!
!LO:TX:a:t=Für drei Kinderstimmen.	!
{8.d	1._Treu-
16g	-e
=1	=1
4b/	Lie-
4b/	-be
8.a	bis
16b/	ʒum
=2	=2
(8aL	Gra-
8gJ)	.
4g}	-be
{8.g	ſchwör
16b/	ich
=3	=3
4.dd/	dir
8ee/	mit
8cc/	Herʒ
8dd/	und
=4	=4
2b/}	Hand.
{8.g	Was
16b	ich
=5	=5
4.a	bin
8a	und
8.b/	was
16cc#/	ich
=6	=6
4dd/	ha-
4a}	-be
{8.a	dank'
16dd/	ich
=7	=7
4.ff#/	dir
8dd/	mein
8.ee/	Va-
16cc#/	-ter-
=8	=8
2dd/}	-land!
{8a	Nicht
8b/	in
=9	=9
4.cc/	Wor-
8a	-ten
8g	nur
8b/	und
=10	=10
(8b/L	Lie-
8aJ)	.
4a}	-dern
{8a	iſt
8b/	mein
=11	=11
4.cc/	Herʒ
8a	zum
8g	Dank
8b	be-
=12	=12
(4b/	-reit;
4a)	.
4r}	.
=13	=13
{8.g	mit
16g	der
8a`	That
8b/`	will
8cc/`	ich's
8cc/`	er-
=14	=14
4ee/	-wie-
4cc/}	-dern
{8.gg/	dir
16ee/	in
=15	=15
4.dd/	Not,
8b/	in
8.cc/	Kampſ
16a	und
=16	=16
2g}	Streit.
==	==
!!!AGN: Vaterlands -, Heimat - Lied
!!!ONB: ESAC (Essen Associative Code) Database: FINK
!!!AMT: simple triple
!!!AIN: vox
!!!EED: Helmut Schaffrath
!!!EEV: 1.0
!!Text: H. v. Fallersleben
!!!GTL: Vaterlands- und Heimathslieder.
!!!source: Musikalischer Hausschatz der Deutschen. Eine Sammlung von über 1000 Liedern und Gesängen mit Singstimmen und Klavierbegleitung. Leipzig, Litterarisches Verlags-Haus.
!!!page: 295
!!!ENC: Anna Maria Matuszewska
!!!EEV: 2024/03/14
*-	*-
